!!!OTL: Der Rosskauf./ (Zur Sage vom Kaiser Friedrich. )
!!!OTL-incipit: DURCH DEN WALD RITT HIN DER MUELLER
!!!ARE: Europa, Mitteleuropa, Deutschland, Niederrhein
!!!SCT: Z1001
!!!TXL: @@DE
!!!YEM: Copyright 1995, estate of Helmut Schaffrath.
**kern	**text
*ICvox	*
*M4/4	*
*met(c)	*
*k[b-]	*
*F:	*
=1	=1
!LO:TX:a:t=Vom Niederrhein.	!
{4f	Durch
8fL	den
16g	.
16aJ	.
4g	Wald
8gL	ritt
8eJ	.
=2	=2
4f	hin
8fL	der
8aJ	.
4.cc	Mül-
8b-/}	-ler,
=3	=3
{4a	will
8aL	ver-
8fJ	.
8gL	-kau-
8aJ	.
8b-L	-fen
8gJ	.
=4	=4
8fL	ſei-
8eJ	.
8fL	-nen
8aJ	.
4g	Schim-
8aL	-mel;
8b-J}	.
=5	=5
{4cc/	ſin-
8dd/L	-ſter
8ccJ	.
4cc/	iſts,
8dd/L	kein
8ccJ	.
=6	=6
8cc/L	Mon-
8b-J	.
8b-L	-den-
8aJ	.
4b-/	-ſchein,
4r}	.
=7	=7
{8aL	und
8gJ	.
8aL	die
8b-J	.
4cc/	lie-
8b-L	-ben
8aJ	.
=8	=8
8aL	Ster-
8gJ	.
8fL	-ne-
8aJ	.
4g	-lein
4r}	.
=9	=9
{8fL	hal-
16a	.
16gJ	.
8fL	-ten
16g	.
16aJ	.
4cc/	ſich
4a	ver-
=10	=10
2g;	-bor-
4f	-gen.
4r}	.
==	==
!!!AGN: Romanze, Ballade, Sage (vom Kaiser Friedrich)
!!!ONB: ESAC (Essen Associative Code) Database: ZUCCAL
!!!AMT: simple quadruple
!!!AIN: vox
!!!EED: Helmut Schaffrath
!!!EEV: 1.0
!!@@COMMENT:"In original two voices"
!!@@END:
!!!GTL: I. Volks- Leuschen.
!!!URL-scan: https://www.digitale-sammlungen.de/de/view/bsb11160573?page=11
!!!ENC: Anna Maria Matuszewska
!!!EEV: 2025/01/31
*-	*-
